X: 1504
T: Andy Dickson's
R: reel
M: 4/4
K: Dmajor
F2 AF E2 DE|FAdB ABAF|DEFA dBAF|GEED EA,CE|
DEFE FEDE|FAdB AFEF|DEFA dAFA|GECE D4:|
fd d2 fded|ADFA BAAg|fd d2 fded|Bdgb a3 g|
fd d2 fded|A2 FA BAFA|DEFA BFAF|GECE D4:|

